X: 24692
T: MacLeod's Farewell
R: reel
M: 4/4
K: Dmajor
DE|:F2BF AFEF|D2DE FABd|e2fd efeB|AB~B2 dBAG|
F2BF AFEF|D2DE FABd|eaed egdB|1 Addc d2DE:|2 Addc d3B||
|:A3f edfd|A3f edfd|ABdA BdAB|dBAD EGDG|
F2BF AFEF|D2DE FABd|eaed egdB|1 Addc d3B:|2 Addc d2||

